X:0047
T:The Royal Glasgow Volunteer's Jig.
M:6/8
L:1/8
Q:3/8=120
I: :: ::
Z:Jack Campin * www.campin.me.uk * 2009
K:G
g2d ded|dcB ABc|dBG GAB |AFD D3 |
g2d ded|dcB ABc|dgf ed^c|d3  d3:|
a2d ded|b2d d2d|ded dcB |AFD D3 |
a2d ded|g2d b2c|B2G AFD |G3  G3:|

